public/14f.svg

<?xml version="1.0" encoding="UTF-8" standalone="no"?>
<svg
   xmlns:dc="http://purl.org/dc/elements/1.1/"
   xmlns:cc="http://creativecommons.org/ns#"
   xmlns:rdf="http://www.w3.org/1999/02/22-rdf-syntax-ns#"
   xmlns:svg="http://www.w3.org/2000/svg"
   xmlns="http://www.w3.org/2000/svg"
   xmlns:sodipodi="http://sodipodi.sourceforge.net/DTD/sodipodi-0.dtd"
   xmlns:inkscape="http://www.inkscape.org/namespaces/inkscape"
   width="1481.2791"
   height="1901.9703"
   viewBox="0 0 1665.616 2137.5153"
   style="opacity:0.3;fill:none"
   version="1.1"
   id="svg993"
   sodipodi:docname="14f.svg"
   inkscape:version="0.92.5 (2060ec1f9f, 2020-04-08)">
  <metadata
     id="metadata997">
    <rdf:RDF>
      <cc:Work
         rdf:about="">
        <dc:format>image/svg+xml</dc:format>
        <dc:type
           rdf:resource="http://purl.org/dc/dcmitype/StillImage" />
        <dc:title></dc:title>
      </cc:Work>
    </rdf:RDF>
  </metadata>
  <sodipodi:namedview
     pagecolor="#ffffff"
     bordercolor="#666666"
     borderopacity="1"
     objecttolerance="10"
     gridtolerance="10"
     guidetolerance="10"
     inkscape:pageopacity="0"
     inkscape:pageshadow="2"
     inkscape:window-width="1920"
     inkscape:window-height="1013"
     id="namedview995"
     showgrid="false"
     fit-margin-top="0"
     fit-margin-left="0"
     fit-margin-right="0"
     fit-margin-bottom="0"
     inkscape:zoom="0.87559464"
     inkscape:cx="740.63953"
     inkscape:cy="880.7391"
     inkscape:window-x="0"
     inkscape:window-y="0"
     inkscape:window-maximized="1"
     inkscape:current-layer="svg993" />
  <path
     style="clip-rule:evenodd;fill:#ffeb35;fill-rule:evenodd"
     inkscape:connector-curvature="0"
     id="path926"
     d="M 1510.276,820.858 284.339,678.622 C 430.848,550.3 622.746,472.527 832.806,472.527 c 279.24,0 526.37,137.425 677.47,348.331 z" />
  <path
     style="clip-rule:evenodd;fill:#ffd335;fill-rule:evenodd"
     inkscape:connector-curvature="0"
     id="path928"
     d="m 1230.076,788.348 c -110.06,-84.58 -247.88,-134.868 -397.45,-134.868 -95.724,0 -186.634,20.597 -268.533,57.599 z" />
  <path
     style="fill:#31aa49"
     inkscape:connector-curvature="0"
     id="path930"
     d="m 878.426,424.018 c 0,-164.889 133.67,-298.558 298.56,-298.558 h 12.78 c 0,164.889 -133.67,298.558 -298.56,298.558 z" />
  <path
     style="fill:#31aa49"
     inkscape:connector-curvature="0"
     id="path932"
     d="M 843.916,424.018 C 843.916,189.552 653.842,-0.52 419.376,-0.52 H 406.6 c 0,234.466 190.072,424.538 424.536,424.538 z" />
  <g
     id="g939"
     mask="url(#mask0)"
     transform="translate(-179.404,-36.52)">
    <path
       style="clip-rule:evenodd;fill:#31aa49;fill-rule:evenodd"
       inkscape:connector-curvature="0"
       id="path937"
       d="m 1012.21,2174.66 c 459.95,0 832.81,-372.86 832.81,-832.81 0,-459.946 -372.86,-832.807 -832.81,-832.807 -459.943,0 -832.803,372.861 -832.803,832.807 0,459.95 372.86,832.81 832.803,832.81 z M 1012.03,1793 c 248.81,0 450.5,-201.92 450.5,-451 0,-249.08 -201.69,-451 -450.5,-451 -248.803,0 -450.499,201.92 -450.499,451 0,249.08 201.696,451 450.499,451 z" />
  </g>
  <g
     id="g946"
     mask="url(#mask1)"
     transform="translate(-179.404,-36.52)">
    <path
       style="clip-rule:evenodd;fill:#b5d467;fill-rule:evenodd"
       inkscape:connector-curvature="0"
       id="path944"
       d="m 1012.5,2050 c 391.29,0 708.5,-316.98 708.5,-708 0,-391.018 -317.21,-708 -708.5,-708 -391.294,0 -708.5,316.982 -708.5,708 0,391.02 317.206,708 708.5,708 z m -0.47,-257 c 248.81,0 450.5,-201.92 450.5,-451 0,-249.08 -201.69,-451 -450.5,-451 -248.803,0 -450.499,201.92 -450.499,451 0,249.08 201.696,451 450.499,451 z" />
  </g>
  <g
     id="g953"
     mask="url(#mask2)"
     transform="translate(-179.404,-36.52)">
    <path
       style="clip-rule:evenodd;fill:#f75566;fill-rule:evenodd"
       inkscape:connector-curvature="0"
       id="path951"
       d="m 1012,1994 c 359.54,0 651,-291.91 651,-652 0,-360.09 -291.46,-652 -651,-652 -359.537,0 -651,291.91 -651,652 0,360.09 291.463,652 651,652 z m 0.03,-201 c 248.81,0 450.5,-201.92 450.5,-451 0,-249.08 -201.69,-451 -450.5,-451 -248.803,0 -450.499,201.92 -450.499,451 0,249.08 201.696,451 450.499,451 z" />
  </g>
  <g
     id="g966"
     mask="url(#mask3)"
     transform="translate(-179.404,-36.52)">
    <path
       style="clip-rule:evenodd;fill:#826730;fill-rule:evenodd"
       inkscape:connector-curvature="0"
       id="path958"
       d="m 1012.21,2174.66 c 459.95,0 832.81,-372.86 832.81,-832.81 0,-459.942 -372.86,-832.803 -832.81,-832.803 -459.945,0 -832.806,372.861 -832.806,832.803 0,459.95 372.861,832.81 832.806,832.81 z M 1012.03,1793 c 248.81,0 450.5,-201.92 450.5,-451 0,-249.08 -201.69,-451 -450.5,-451 -248.803,0 -450.499,201.92 -450.499,451 0,249.08 201.696,451 450.499,451 z" />
    <path
       style="clip-rule:evenodd;fill:#96b143;fill-rule:evenodd"
       inkscape:connector-curvature="0"
       id="path960"
       d="m 1012,2038 c 389.91,0 706,-316.09 706,-706 0,-389.913 -316.09,-706 -706,-706 -389.913,0 -706,316.087 -706,706 0,389.91 316.087,706 706,706 z m 0.03,-245 c 248.81,0 450.5,-201.92 450.5,-451 0,-249.08 -201.69,-451 -450.5,-451 -248.803,0 -450.499,201.92 -450.499,451 0,249.08 201.696,451 450.499,451 z" />
    <path
       style="clip-rule:evenodd;opacity:0.7;fill:#8ca53e;fill-rule:evenodd"
       inkscape:connector-curvature="0"
       id="path962"
       d="m 1012,1992 c 359.54,0 651,-291.46 651,-651 0,-359.537 -291.46,-651 -651,-651 -359.537,0 -651,291.463 -651,651 0,359.54 291.463,651 651,651 z m 0.03,-199 c 248.81,0 450.5,-201.92 450.5,-451 0,-249.08 -201.69,-451 -450.5,-451 -248.803,0 -450.499,201.92 -450.499,451 0,249.08 201.696,451 450.499,451 z" />
    <path
       style="clip-rule:evenodd;fill:#e2e38c;fill-rule:evenodd"
       inkscape:connector-curvature="0"
       id="path964"
       d="m 1013,1861 c 286.64,0 519,-232.36 519,-519 0,-286.64 -232.36,-519 -519,-519 -286.636,0 -519,232.36 -519,519 0,286.64 232.364,519 519,519 z m -0.97,-68 c 248.81,0 450.5,-201.92 450.5,-451 0,-249.08 -201.69,-451 -450.5,-451 -248.803,0 -450.499,201.92 -450.499,451 0,249.08 201.696,451 450.499,451 z" />
  </g>
  <defs
     id="defs991">
    <clipPath
       id="clip0">
      <rect
         width="2024"
         height="1942"
         id="rect988"
         x="0"
         y="0"
         style="fill:#ffffff" />
    </clipPath>
    <mask
       height="586"
       width="2133"
       y="673"
       x="88"
       maskUnits="userSpaceOnUse"
       mask-type="alpha"
       id="mask0">
      <path
         id="path934"
         d="m 93.5,673 2127.3,245 v 205 L 88,1259 Z"
         inkscape:connector-curvature="0"
         style="fill:#ffffff" />
    </mask>
    <mask
       height="586"
       width="2138"
       y="673"
       x="88"
       maskUnits="userSpaceOnUse"
       mask-type="alpha"
       id="mask1">
      <path
         id="path941"
         d="m 88,673 2138,246 -5.2,206 L 88,1259 Z"
         inkscape:connector-curvature="0"
         style="fill:#ffffff" />
    </mask>
    <mask
       height="582"
       width="2133"
       y="677"
       x="88"
       maskUnits="userSpaceOnUse"
       mask-type="alpha"
       id="mask2">
      <path
         id="path948"
         d="M 128.067,677 2220.8,918 v 205 L 88,1259 Z"
         inkscape:connector-curvature="0"
         style="fill:#ffffff" />
    </mask>
    <mask
       height="470"
       width="2324"
       y="987"
       x="-91"
       maskUnits="userSpaceOnUse"
       mask-type="alpha"
       id="mask3">
      <path
         id="path955"
         d="M 2233,987 53,1233 -91,1457 h 2324 z"
         inkscape:connector-curvature="0"
         style="fill:#c4c4c4" />
    </mask>
  </defs>
</svg>

<svg width="1800" height="1728" viewBox="0 0 2024 1942" fill="none" xmlns="http://www.w3.org/2000/svg" style="opacity: 0.3">
<g clip-path="url(#clip0)">
<path fill-rule="evenodd" clip-rule="evenodd" d="M1689.68 857.378L463.743 715.142C610.252 586.82 802.15 509.047 1012.21 509.047C1291.45 509.047 1538.58 646.472 1689.68 857.378Z" fill="#FFEB35"/>
<path fill-rule="evenodd" clip-rule="evenodd" d="M1409.48 824.868C1299.42 740.288 1161.6 690 1012.03 690C916.306 690 825.396 710.597 743.497 747.599L1409.48 824.868Z" fill="#FFD335"/>
<path d="M1057.83 460.538C1057.83 295.649 1191.5 161.98 1356.39 161.98H1369.17C1369.17 326.869 1235.5 460.538 1070.61 460.538H1057.83Z" fill="#31AA49"/>
<path d="M1023.32 460.538C1023.32 226.072 833.246 36 598.78 36H586.004C586.004 270.466 776.076 460.538 1010.54 460.538H1023.32Z" fill="#31AA49"/>
<mask id="mask0" mask-type="alpha" maskUnits="userSpaceOnUse" x="88" y="673" width="2133" height="586">
<path d="M93.5 673L2220.8 918V1123L88 1259L93.5 673Z" fill="white"/>
</mask>
<g mask="url(#mask0)">
<path fill-rule="evenodd" clip-rule="evenodd" d="M1012.21 2174.66C1472.16 2174.66 1845.02 1801.8 1845.02 1341.85C1845.02 881.904 1472.16 509.043 1012.21 509.043C552.267 509.043 179.407 881.904 179.407 1341.85C179.407 1801.8 552.267 2174.66 1012.21 2174.66ZM1012.03 1793C1260.84 1793 1462.53 1591.08 1462.53 1342C1462.53 1092.92 1260.84 891 1012.03 891C763.227 891 561.531 1092.92 561.531 1342C561.531 1591.08 763.227 1793 1012.03 1793Z" fill="#31AA49"/>
</g>
<mask id="mask1" mask-type="alpha" maskUnits="userSpaceOnUse" x="88" y="673" width="2138" height="586">
<path d="M88 673L2226 919L2220.8 1125L88 1259V673Z" fill="white"/>
</mask>
<g mask="url(#mask1)">
<path fill-rule="evenodd" clip-rule="evenodd" d="M1012.5 2050C1403.79 2050 1721 1733.02 1721 1342C1721 950.982 1403.79 634 1012.5 634C621.206 634 304 950.982 304 1342C304 1733.02 621.206 2050 1012.5 2050ZM1012.03 1793C1260.84 1793 1462.53 1591.08 1462.53 1342C1462.53 1092.92 1260.84 891 1012.03 891C763.227 891 561.531 1092.92 561.531 1342C561.531 1591.08 763.227 1793 1012.03 1793Z" fill="#B5D467"/>
</g>
<mask id="mask2" mask-type="alpha" maskUnits="userSpaceOnUse" x="88" y="677" width="2133" height="582">
<path d="M128.067 677L2220.8 918V1123L88 1259L128.067 677Z" fill="white"/>
</mask>
<g mask="url(#mask2)">
<path fill-rule="evenodd" clip-rule="evenodd" d="M1012 1994C1371.54 1994 1663 1702.09 1663 1342C1663 981.91 1371.54 690 1012 690C652.463 690 361 981.91 361 1342C361 1702.09 652.463 1994 1012 1994ZM1012.03 1793C1260.84 1793 1462.53 1591.08 1462.53 1342C1462.53 1092.92 1260.84 891 1012.03 891C763.227 891 561.531 1092.92 561.531 1342C561.531 1591.08 763.227 1793 1012.03 1793Z" fill="#F75566"/>
</g>
<mask id="mask3" mask-type="alpha" maskUnits="userSpaceOnUse" x="-91" y="987" width="2324" height="470">
<path d="M2233 987L53 1233L-91 1457H2233V987Z" fill="#C4C4C4"/>
</mask>
<g mask="url(#mask3)">
<path fill-rule="evenodd" clip-rule="evenodd" d="M1012.21 2174.66C1472.16 2174.66 1845.02 1801.8 1845.02 1341.85C1845.02 881.908 1472.16 509.047 1012.21 509.047C552.265 509.047 179.404 881.908 179.404 1341.85C179.404 1801.8 552.265 2174.66 1012.21 2174.66ZM1012.03 1793C1260.84 1793 1462.53 1591.08 1462.53 1342C1462.53 1092.92 1260.84 891 1012.03 891C763.227 891 561.531 1092.92 561.531 1342C561.531 1591.08 763.227 1793 1012.03 1793Z" fill="#826730"/>
<path fill-rule="evenodd" clip-rule="evenodd" d="M1012 2038C1401.91 2038 1718 1721.91 1718 1332C1718 942.087 1401.91 626 1012 626C622.087 626 306 942.087 306 1332C306 1721.91 622.087 2038 1012 2038ZM1012.03 1793C1260.84 1793 1462.53 1591.08 1462.53 1342C1462.53 1092.92 1260.84 891 1012.03 891C763.227 891 561.531 1092.92 561.531 1342C561.531 1591.08 763.227 1793 1012.03 1793Z" fill="#96B143"/>
<path opacity="0.7" fill-rule="evenodd" clip-rule="evenodd" d="M1012 1992C1371.54 1992 1663 1700.54 1663 1341C1663 981.463 1371.54 690 1012 690C652.463 690 361 981.463 361 1341C361 1700.54 652.463 1992 1012 1992ZM1012.03 1793C1260.84 1793 1462.53 1591.08 1462.53 1342C1462.53 1092.92 1260.84 891 1012.03 891C763.227 891 561.531 1092.92 561.531 1342C561.531 1591.08 763.227 1793 1012.03 1793Z" fill="#8CA53E"/>
<path fill-rule="evenodd" clip-rule="evenodd" d="M1013 1861C1299.64 1861 1532 1628.64 1532 1342C1532 1055.36 1299.64 823 1013 823C726.364 823 494 1055.36 494 1342C494 1628.64 726.364 1861 1013 1861ZM1012.03 1793C1260.84 1793 1462.53 1591.08 1462.53 1342C1462.53 1092.92 1260.84 891 1012.03 891C763.227 891 561.531 1092.92 561.531 1342C561.531 1591.08 763.227 1793 1012.03 1793Z" fill="#E2E38C"/>
</g>
<path d="M73.724 1904H117.4V1651.61H86.97L19.308 1673.09L28.616 1708.89L73.724 1696.36V1904Z" fill="black"/>
<path d="M299.437 1904H341.681V1847.79H377.481V1811.64H341.681V1651.61H304.091L164.829 1816.29L173.063 1847.79H299.437V1904ZM217.097 1811.64L299.437 1712.47V1811.64H217.097Z" fill="black"/>
<path d="M428.189 1904H472.223V1801.97H598.597V1761.87H472.223V1693.5H614.707V1653.4H428.189V1904Z" fill="black"/>
<path d="M668.138 1904H686.754V1800.18H768.736L848.57 1904H872.198L789.5 1796.96C831.386 1791.23 862.89 1767.24 862.89 1725.36V1724.64C862.89 1706.38 855.73 1689.92 843.916 1678.1C828.522 1662.71 804.536 1653.4 773.39 1653.4H668.138V1904ZM686.754 1783.35V1670.58H772.316C818.14 1670.58 844.274 1691.35 844.274 1725.36V1726.07C844.274 1761.87 813.128 1783.35 771.242 1783.35H686.754Z" fill="black"/>
<path d="M1039.98 1907.94C1100.84 1907.94 1142.72 1869.27 1142.72 1797.67V1653.4H1124.11V1799.82C1124.11 1860.32 1091.17 1891.11 1040.69 1891.11C987.351 1891.11 955.847 1857.82 955.847 1798.03V1653.4H937.231V1799.82C937.231 1869.99 979.833 1907.94 1039.98 1907.94Z" fill="black"/>
<path d="M1229.99 1904H1248.61V1653.4H1229.99V1904Z" fill="black"/>
<path d="M1407.71 1904H1426.32V1670.58H1513.68V1653.4H1320.36V1670.58H1407.71V1904Z" fill="black"/>
<path d="M1582.66 1904H1762.73V1886.82H1601.28V1786.22H1744.83V1769.03H1601.28V1670.58H1760.94V1653.4H1582.66V1904Z" fill="black"/>
<path d="M1921.66 1907.58C1969.99 1907.58 2004.71 1879.66 2004.71 1839.2V1838.49C2004.71 1801.61 1980.73 1781.21 1922.37 1769.39C1862.95 1756.86 1849.34 1741.47 1849.34 1714.62V1713.9C1849.34 1688.13 1873.33 1666.65 1910.56 1666.65C1938.13 1666.65 1961.4 1674.52 1985.38 1694.93L1997.2 1680.25C1971.78 1659.84 1947.43 1649.82 1911.28 1649.82C1864.74 1649.82 1830.73 1678.46 1830.73 1715.69V1716.41C1830.73 1754.71 1854.71 1774.4 1915.21 1786.93C1972.14 1798.39 1986.1 1813.78 1986.1 1840.28V1840.99C1986.1 1869.63 1960.32 1890.75 1922.73 1890.75C1885.86 1890.75 1860.44 1879.3 1832.87 1853.52L1820.7 1867.48C1850.77 1894.33 1881.56 1907.58 1921.66 1907.58Z" fill="black"/>
</g>
<defs>
<clipPath id="clip0">
<rect width="2024" height="1942" fill="white"/>
</clipPath>
</defs>
</svg>
